X: 10467
T: Donegal, The
R: jig
M: 6/8
K: Adorian
E2A GED|B,2A, A,B,A,|B,2A, B,2A,|G,A,B, DB,D|
E2A GED|B,2A, A,GA|B2A ABG|1 A2A AGF:|2 A2A Aed||
K:Amix
|:c2A AB/c/d|eag e2f|g2B B2A|GAB dBd|
c2A AB/c/d|eag e2f|g2B BAG|1 A3 Aed:|2 A3 AG=F||

